atari7800/_inc/system.svg

<svg xmlns="http://www.w3.org/2000/svg"><g fill="#fff"><path d="m130.047 3.317c2.967-3.797 9.11-4.446 12.75-1.26 1.489 1.256 2.533 2.984 3.066 4.846 6.741 23.193 13.512 46.375 20.243 69.57-3.978.005-7.959-.006-11.935.005-1.876-6.395-3.708-12.802-5.56-19.205-7.693-.017-15.382-.003-23.074-.006-1.883 6.398-3.742 12.803-5.592 19.212-3.956-.014-7.913-.003-11.87-.008 6.404-22.124 12.815-44.25 19.25-66.367.751-2.311 1.037-4.896 2.709-6.787m7.017 14.212c-2.821 9.61-5.584 19.236-8.389 28.849 5.591.025 11.179.009 16.768.009-2.783-9.62-5.566-19.239-8.371-28.858z"/><path d="m213.844 3.815c2.074-3.007 6.082-4.466 9.61-3.537 3.229.744 5.701 3.527 6.553 6.661 6.733 23.176 13.492 46.345 20.225 69.521-3.985.028-7.965 0-11.949.017-1.852-6.401-3.684-12.81-5.551-19.209-7.679.003-15.357-.014-23.036.006-1.835 6.406-3.729 12.797-5.564 19.201-3.953.004-7.904-.004-11.856.004 6.401-22.247 12.876-44.475 19.328-66.705.688-2.01.952-4.224 2.254-5.959m-.963 42.574c5.568.007 11.133.003 16.699.003-2.769-9.639-5.583-19.266-8.345-28.906-2.783 9.636-5.587 19.262-8.35 28.903z"/><path d="m157.203.162h43.17v11.642c-5.299.004-10.595-.007-15.892.004 0 21.554.003 43.112-.003 64.665h-11.384c0-21.552-.004-43.11.002-64.665-5.298-.011-10.594 0-15.895-.004.011-3.881 0-7.76.011-11.642z"/><path d="m262.887.635c1.094-.377 2.261-.507 3.415-.478 4.537.017 9.075.003 13.611.006 7.641.14 14.935 4.881 18.241 11.758 2.29 4.466 2.527 9.659 1.949 14.558-.398 5.13-2.549 10.258-6.492 13.657-2.084 1.857-4.678 2.98-6.905 4.633-1.225.933-1.285 2.745-.653 4.038 6.021 9.296 12.282 18.448 18.431 27.666-4.497.008-8.993-.01-13.49.008-5.886-8.841-11.71-17.727-17.572-26.581-1.723-2.52-2.192-5.857-1.161-8.733.806-2.205 2.732-3.82 4.879-4.653 4.099-1.564 8.14-4.021 10.41-7.887 1.727-2.907 1.638-6.495.861-9.676-.911-4.13-4.935-7.38-9.188-7.237-2.94.021-5.88-.015-8.816.013-1.329-.029-2.58 1.125-2.563 2.472-.014 20.759.007 41.52-.006 62.28-3.824-.008-7.644 0-11.468-.004-.008-22.349.006-44.7-.008-67.049.022-3.916 2.805-7.601 6.52-8.791z"/><path d="m310.49.162h12.067c-.003 25.439.008 50.875-.006 76.315-4.019-.011-8.039 0-12.061-.005.011-25.438.011-50.874.011-76.31z"/><path d="m34.029.007c1.933-.007 3.865 0 5.799-.005.008 4.545 0 9.09.003 13.634.02 3.793-.087 7.585-.244 11.374-.259 5.472-.602 10.956-1.509 16.364-.622 3.728-1.912 7.326-3.512 10.739-2.611 5.503-6.713 10.161-11.324 14.078-4.125 3.63-9.05 6.274-14.228 8.061-2.93 1.009-5.945 1.786-9.015 2.22.003-3.812.003-7.623 0-11.435 3.696-.554 7.248-1.868 10.548-3.6 3.916-2.069 7.44-4.855 10.407-8.137 3.064-3.388 5.505-7.31 7.358-11.479 2.183-4.79 3.351-9.964 4.145-15.146.994-6.587 1.409-13.247 1.564-19.905.021-2.254.002-4.509.008-6.763z"/><path d="m42.16.013c3.557-.023 7.117-.003 10.675-.01.001 25.49.001 50.979 0 76.467-3.55.008-7.101-.018-10.65.015-.045-8.128-.007-16.257-.019-24.385-.003-17.363.007-34.722-.006-52.087z"/><path d="m55.209.004c1.922-.001 3.844-.005 5.765.002-.062 7.772.202 15.556 1.128 23.278.759 5.997 1.828 12.04 4.216 17.625 2.264 5.407 5.528 10.43 9.782 14.483 4.062 3.871 8.985 6.85 14.333 8.565 1.492.476 3.018.852 4.569 1.077-.002 3.811-.003 7.62 0 11.43-3.048-.415-6.036-1.2-8.946-2.188-3.464-1.205-6.813-2.766-9.891-4.767-2.247-1.444-4.289-3.173-6.251-4.978-3.235-2.982-6.13-6.372-8.305-10.21-1.701-2.988-2.942-6.22-3.914-9.513-.891-3.311-1.271-6.733-1.617-10.136-.668-7.355-.918-14.749-.871-22.131.002-4.183.001-8.361.002-12.537z"/><path d="m34.029.007c-.006 2.255.013 4.51-.009 6.765-.154 6.657-.569 13.318-1.563 19.905-.794 5.182-1.962 10.355-4.145 15.146-1.853 4.168-4.295 8.092-7.358 11.48-2.967 3.284-6.492 6.067-10.407 8.136-3.3 1.735-6.852 3.046-10.548 3.599.003 3.813.003 7.624 0 11.437 3.07-.433 6.085-1.212 9.015-2.22 5.179-1.788 10.103-4.432 14.228-8.062 4.611-3.917 8.713-8.575 11.324-14.078 1.6-3.415 2.89-7.011 3.512-10.739.907-5.409 1.25-10.892 1.509-16.363.157-3.79.264-7.582.244-11.375-.003-4.544.005-9.089-.003-13.634-1.934.003-3.866-.004-5.799.003"/><path d="m42.16.013c.013 17.364.001 34.726.007 52.087.012 8.128-.027 16.257.019 24.385 3.549-.031 7.1-.007 10.65-.015.001-25.488.001-50.977 0-76.467-3.559.007-7.119-.014-10.676.01"/><path d="m55.209.004c-.001 4.176 0 8.356 0 12.533-.047 7.384.203 14.775.871 22.131.347 3.403.726 6.825 1.618 10.136.971 3.293 2.213 6.525 3.913 9.512 2.174 3.839 5.07 7.229 8.305 10.211 1.962 1.805 4.006 3.534 6.251 4.977 3.077 2.002 6.428 3.563 9.891 4.768 2.91.99 5.899 1.775 8.946 2.188-.003-3.81-.002-7.619 0-11.43-1.551-.226-3.077-.599-4.569-1.078-5.348-1.714-10.271-4.693-14.333-8.565-4.254-4.05-7.517-9.074-9.782-14.483-2.389-5.584-3.458-11.627-4.216-17.624-.926-7.722-1.19-15.506-1.128-23.279-1.923-.002-3.844.002-5.767.003"/><path d="m463.407 36.501c5.589-3.294 9.075-8.87 9.075-15.06 0-14.619-15.441-21.277-29.787-21.277-14.349 0-29.788 6.658-29.788 21.277 0 6.192 3.485 11.766 9.074 15.06-7.948 3.681-12.396 9.951-12.396 17.763 0 14.724 16.655 22.427 33.108 22.427 16.452 0 33.107-7.703 33.107-22.427.032-7.812-4.424-14.084-12.372-17.763zm-20.711-9.267c-3.66 0-6.637-2.36-6.637-5.264s2.977-5.265 6.637-5.265c3.656 0 6.634 2.361 6.634 5.265s-2.974 5.264-6.635 5.264zm0 18.759c4.071 0 7.385 2.716 7.385 6.061 0 3.244-3.314 5.883-7.385 5.883-4.075 0-7.386-2.637-7.386-5.883 0-3.345 3.323-6.061 7.387-6.061z"/><path d="m527.287 12.618c-6.11-8.147-15.087-12.456-25.959-12.456-10.871 0-19.849 4.306-25.96 12.456-5.137 6.853-7.968 16.066-7.968 25.942 0 19.111 10.491 38.397 33.93 38.397s33.932-19.287 33.932-38.397c0-9.877-2.826-19.09-7.969-25.942zm-25.96 41.601c-8.172 0-9.066-10.622-9.066-15.749 0-5.078.897-15.572 9.066-15.572 8.171 0 9.065 10.494 9.065 15.572 0 5.127-.899 15.749-9.069 15.749z"/><path d="m592.025 12.618c-6.11-8.147-15.088-12.456-25.959-12.456s-19.848 4.306-25.959 12.456c-5.138 6.853-7.969 16.066-7.969 25.942 0 19.111 10.492 38.397 33.93 38.397 23.439 0 33.931-19.287 33.931-38.397 0-9.877-2.836-19.09-7.969-25.942zm-25.961 41.601c-8.172 0-9.066-10.622-9.066-15.749 0-5.078.896-15.572 9.066-15.572s9.066 10.494 9.066 15.572c0 5.127-.9 15.749-9.07 15.749z"/><path d="m356.146 1.234v23.3h31.898l-23.802 52.075h26.956l32.003-75.375z"/></g></svg>

<?xml version="1.0" encoding="utf-8"?>
<svg version="1.1" xmlns="http://www.w3.org/2000/svg">
  <g>
    <path id="path5" d="M 130.047 3.317 C 133.014 -0.48 139.157 -1.129 142.797 2.057 C 144.286 3.313 145.33 5.041 145.863 6.903 C 152.604 30.096 159.375 53.278 166.106 76.473 C 162.128 76.478 158.147 76.467 154.171 76.478 C 152.295 70.083 150.463 63.676 148.611 57.273 C 140.918 57.256 133.229 57.27 125.537 57.267 C 123.654 63.665 121.795 70.07 119.945 76.479 C 115.989 76.465 112.032 76.476 108.075 76.471 C 114.479 54.347 120.89 32.221 127.325 10.104 C 128.076 7.793 128.362 5.208 130.034 3.317 M 137.051 17.529 C 134.23 27.139 131.467 36.765 128.662 46.378 C 134.253 46.403 139.841 46.387 145.43 46.387 C 142.647 36.767 139.864 27.148 137.059 17.529 Z" style="fill: rgb(255, 255, 255);"/>
    <path id="path7" d="M 213.844 3.815 C 215.918 0.808 219.926 -0.651 223.454 0.278 C 226.683 1.022 229.155 3.805 230.007 6.939 C 236.74 30.115 243.499 53.284 250.232 76.46 C 246.247 76.488 242.267 76.46 238.283 76.477 C 236.431 70.076 234.599 63.667 232.732 57.268 C 225.053 57.271 217.375 57.254 209.696 57.274 C 207.861 63.68 205.967 70.071 204.132 76.475 C 200.179 76.479 196.228 76.471 192.276 76.479 C 198.677 54.232 205.152 32.004 211.604 9.774 C 212.292 7.764 212.556 5.55 213.858 3.815 M 212.895 46.389 C 218.463 46.396 224.028 46.392 229.594 46.392 C 226.825 36.753 224.011 27.126 221.249 17.486 C 218.466 27.122 215.662 36.748 212.899 46.389 Z" style="fill: rgb(255, 255, 255);"/>
    <path id="path9" d="M 157.203 0.162 L 200.373 0.162 L 200.373 11.804 C 195.074 11.808 189.778 11.797 184.481 11.808 C 184.481 33.362 184.484 54.92 184.478 76.473 L 173.094 76.473 C 173.094 54.921 173.09 33.363 173.096 11.808 C 167.798 11.797 162.502 11.808 157.201 11.804 C 157.212 7.923 157.201 4.044 157.212 0.162 Z" style="fill: rgb(255, 255, 255);"/>
    <path id="path11" d="M 262.887 0.635 C 263.981 0.258 265.148 0.128 266.302 0.157 C 270.839 0.174 275.377 0.16 279.913 0.163 C 287.554 0.303 294.848 5.044 298.154 11.921 C 300.444 16.387 300.681 21.58 300.103 26.479 C 299.705 31.609 297.554 36.737 293.611 40.136 C 291.527 41.993 288.933 43.116 286.706 44.769 C 285.481 45.702 285.421 47.514 286.053 48.807 C 292.074 58.103 298.335 67.255 304.484 76.473 C 299.987 76.481 295.491 76.463 290.994 76.481 C 285.108 67.64 279.284 58.754 273.422 49.9 C 271.699 47.38 271.23 44.043 272.261 41.167 C 273.067 38.962 274.993 37.347 277.14 36.514 C 281.239 34.95 285.28 32.493 287.55 28.627 C 289.277 25.72 289.188 22.132 288.411 18.951 C 287.5 14.821 283.476 11.571 279.223 11.714 C 276.283 11.735 273.343 11.699 270.407 11.727 C 269.078 11.698 267.827 12.852 267.844 14.199 C 267.83 34.958 267.851 55.719 267.838 76.479 C 264.014 76.471 260.194 76.479 256.37 76.475 C 256.362 54.126 256.376 31.775 256.362 9.426 C 256.384 5.51 259.167 1.825 262.882 0.635 Z" style="fill: rgb(255, 255, 255);"/>
    <path id="path13" d="M 310.49 0.162 L 322.557 0.162 C 322.554 25.601 322.565 51.037 322.551 76.477 C 318.532 76.466 314.512 76.477 310.49 76.472 C 310.501 51.034 310.501 25.598 310.501 0.162 Z" style="fill: rgb(255, 255, 255);"/>
    <path id="path15" d="M 34.029 0.007 C 35.962 0 37.894 0.007 39.828 0.002 C 39.836 4.547 39.828 9.092 39.831 13.636 C 39.851 17.429 39.744 21.221 39.587 25.01 C 39.328 30.482 38.985 35.966 38.078 41.374 C 37.456 45.102 36.166 48.7 34.566 52.113 C 31.955 57.616 27.853 62.274 23.242 66.191 C 19.117 69.821 14.192 72.465 9.014 74.252 C 6.084 75.261 3.069 76.038 -0.001 76.472 C 0.002 72.66 0.002 68.849 -0.001 65.037 C 3.695 64.483 7.247 63.169 10.547 61.437 C 14.463 59.368 17.987 56.582 20.954 53.3 C 24.018 49.912 26.459 45.99 28.312 41.821 C 30.495 37.031 31.663 31.857 32.457 26.675 C 33.451 20.088 33.866 13.428 34.021 6.77 C 34.042 4.516 34.023 2.261 34.029 0.007 Z" style="fill: rgb(255, 255, 255);"/>
    <path id="path17" d="M 42.16 0.013 C 45.717 -0.01 49.277 0.01 52.835 0.003 C 52.836 25.493 52.836 50.982 52.835 76.47 C 49.285 76.478 45.734 76.452 42.185 76.485 C 42.14 68.357 42.178 60.228 42.166 52.1 C 42.163 34.737 42.173 17.378 42.16 0.013 Z" style="fill: rgb(255, 255, 255);"/>
    <path id="path19" d="M 55.209 0.004 C 57.131 0.003 59.053 -0.001 60.974 0.006 C 60.912 7.778 61.176 15.562 62.102 23.284 C 62.861 29.281 63.93 35.324 66.318 40.909 C 68.582 46.316 71.846 51.339 76.1 55.392 C 80.162 59.263 85.085 62.242 90.433 63.957 C 91.925 64.433 93.451 64.809 95.002 65.034 C 95 68.845 94.999 72.654 95.002 76.464 C 91.954 76.049 88.966 75.264 86.056 74.276 C 82.592 73.071 79.243 71.51 76.165 69.509 C 73.918 68.065 71.876 66.336 69.914 64.531 C 66.679 61.549 63.784 58.159 61.609 54.321 C 59.908 51.333 58.667 48.101 57.695 44.808 C 56.804 41.497 56.424 38.075 56.078 34.672 C 55.41 27.317 55.16 19.923 55.207 12.541 C 55.209 8.358 55.208 4.18 55.209 0.004 Z" style="fill: rgb(255, 255, 255);"/>
    <path id="path21" d="M 34.029 0.007 C 34.023 2.262 34.042 4.517 34.02 6.772 C 33.866 13.429 33.451 20.09 32.457 26.677 C 31.663 31.859 30.495 37.032 28.312 41.823 C 26.459 45.991 24.017 49.915 20.954 53.303 C 17.987 56.587 14.462 59.37 10.547 61.439 C 7.247 63.174 3.695 64.485 -0.001 65.038 C 0.002 68.851 0.002 72.662 -0.001 76.475 C 3.069 76.042 6.084 75.263 9.014 74.255 C 14.193 72.467 19.117 69.823 23.242 66.193 C 27.853 62.276 31.955 57.618 34.566 52.115 C 36.166 48.7 37.456 45.104 38.078 41.376 C 38.985 35.967 39.328 30.484 39.587 25.013 C 39.744 21.223 39.851 17.431 39.831 13.638 C 39.828 9.094 39.836 4.549 39.828 0.004 C 37.894 0.007 35.962 0 34.029 0.007" style="fill: rgb(255, 255, 255);"/>
    <path id="path23" d="M 42.16 0.013 C 42.173 17.377 42.161 34.739 42.167 52.1 C 42.179 60.228 42.14 68.357 42.186 76.485 C 45.735 76.454 49.286 76.478 52.836 76.47 C 52.837 50.982 52.837 25.493 52.836 0.003 C 49.277 0.01 45.717 -0.011 42.16 0.013" style="fill: rgb(255, 255, 255);"/>
    <path id="path25" d="M 55.209 0.004 C 55.208 4.18 55.209 8.36 55.209 12.537 C 55.162 19.921 55.412 27.312 56.08 34.668 C 56.427 38.071 56.806 41.493 57.698 44.804 C 58.669 48.097 59.911 51.329 61.611 54.316 C 63.785 58.155 66.681 61.545 69.916 64.527 C 71.878 66.332 73.922 68.061 76.167 69.504 C 79.244 71.506 82.595 73.067 86.058 74.272 C 88.968 75.262 91.957 76.047 95.004 76.46 C 95.001 72.65 95.002 68.841 95.004 65.03 C 93.453 64.804 91.927 64.431 90.435 63.952 C 85.087 62.238 80.164 59.259 76.102 55.387 C 71.848 51.337 68.585 46.313 66.32 40.904 C 63.931 35.32 62.862 29.277 62.104 23.28 C 61.178 15.558 60.914 7.774 60.976 0.001 C 59.053 -0.001 57.132 0.003 55.209 0.004" style="fill: rgb(255, 255, 255);"/>
    <path id="path27" d="M 463.407 36.501 C 468.996 33.207 472.482 27.631 472.482 21.441 C 472.482 6.822 457.041 0.164 442.695 0.164 C 428.346 0.164 412.907 6.822 412.907 21.441 C 412.907 27.633 416.392 33.207 421.981 36.501 C 414.033 40.182 409.585 46.452 409.585 54.264 C 409.585 68.988 426.24 76.691 442.693 76.691 C 459.145 76.691 475.8 68.988 475.8 54.264 C 475.832 46.452 471.376 40.18 463.428 36.501 Z M 442.696 27.234 C 439.036 27.234 436.059 24.874 436.059 21.97 C 436.059 19.066 439.036 16.705 442.696 16.705 C 446.352 16.705 449.33 19.066 449.33 21.97 C 449.33 24.874 446.356 27.234 442.695 27.234 Z M 442.696 45.993 C 446.767 45.993 450.081 48.709 450.081 52.054 C 450.081 55.298 446.767 57.937 442.696 57.937 C 438.621 57.937 435.31 55.3 435.31 52.054 C 435.31 48.709 438.633 45.993 442.697 45.993 Z" style="fill: rgb(255, 255, 255);"/>
    <path id="path29" d="M 527.287 12.618 C 521.177 4.471 512.2 0.162 501.328 0.162 C 490.457 0.162 481.479 4.468 475.368 12.618 C 470.231 19.471 467.4 28.684 467.4 38.56 C 467.4 57.671 477.891 76.957 501.33 76.957 C 524.769 76.957 535.262 57.67 535.262 38.56 C 535.262 28.683 532.436 19.47 527.293 12.618 Z M 501.327 54.219 C 493.155 54.219 492.261 43.597 492.261 38.47 C 492.261 33.392 493.158 22.898 501.327 22.898 C 509.498 22.898 510.392 33.392 510.392 38.47 C 510.392 43.597 509.493 54.219 501.323 54.219 Z" style="fill: rgb(255, 255, 255);"/>
    <path id="path31" d="M 592.025 12.618 C 585.915 4.471 576.937 0.162 566.066 0.162 C 555.195 0.162 546.218 4.468 540.107 12.618 C 534.969 19.471 532.138 28.684 532.138 38.56 C 532.138 57.671 542.63 76.957 566.068 76.957 C 589.507 76.957 599.999 57.67 599.999 38.56 C 599.999 28.683 597.163 19.47 592.03 12.618 Z M 566.064 54.219 C 557.892 54.219 556.998 43.597 556.998 38.47 C 556.998 33.392 557.894 22.898 566.064 22.898 C 574.234 22.898 575.13 33.392 575.13 38.47 C 575.13 43.597 574.23 54.219 566.06 54.219 Z" style="fill: rgb(255, 255, 255);"/>
    <polygon id="polygon33" points="356.146 1.234 356.146 24.534 388.044 24.534 364.242 76.609 391.198 76.609 423.201 1.234" style="fill: rgb(255, 255, 255);"/>
  </g>
</svg>
